X:1
T:Elizabeth Kelly's
L:1/8
M:6/8
I:linebreak $
K:G
V:1 treble 
V:1
 GFE c2 E | G2 E EFE | DED D2 E | GED D2 E | GFE c2 E | G2 E DEG | A3 BAG |1 A3 A3 :|2$ A3 A2 || %9
 B | c2 B c2 d | eAA A2 c | BAG GAB | dBG GAB | c2 B c2 d | eAA A2 c | BAG GAB | A3 A2 :| %18
